!!!COM: Music21
!!!OTL: Alalá
!!!OMV: pezas_alalas_alala-16_alala-partitura.musicxml
**kern
*I"Bagpipes
*I'Bag
*clefG^2
*k[]
*M4/4
*met(c)
=1
!LO:TX:a:t=Allegretto
*MM120
!LO:TX:a:t=[quarter]=120
2ddd
4bb
4ccc
=
2ccc
4bb
4ccc
=
2bb
4aa
4bb
=
2aa
2gg#X
=
4.ddd
8ccc
8bbL
8ccc
8ddd
8eeeJ
=
4.ccc
8bb
8aaL
8bb
8ccc
8dddJ
!!linebreak:original
=
4.bb
8aa
8gg#XL
8aa
8bb
8cccJ
=
2aa;
2r
=
*-
